img/promise-bg.svg

<svg width="346" height="480" viewBox="0 0 346 480" fill="none" xmlns="http://www.w3.org/2000/svg">
<path d="M87.0347 -809.025L1.00001 -858.769L1 -958.256L87.0346 -1008L173.069 -958.256V-858.769L87.0347 -809.025Z" fill="#222222"/>
<path d="M258.863 -809.025L172.829 -858.769V-958.256L258.863 -1008L344.898 -958.256V-858.769L258.863 -809.025Z" fill="#222222"/>
<path d="M87.0347 -510.279L1.00001 -560.022L1 -659.51L87.0346 -709.253L173.069 -659.51V-560.022L87.0347 -510.279Z" fill="#222222"/>
<path d="M258.863 -510.279L172.829 -560.022V-659.51L258.863 -709.253L344.898 -659.51V-560.022L258.863 -510.279Z" fill="#222222"/>
<path d="M87.0347 -211.532L1.00001 -261.276L1 -360.763L87.0346 -410.507L173.069 -360.763V-261.276L87.0347 -211.532Z" fill="#222222"/>
<path d="M258.863 -211.532L172.829 -261.276V-360.763L258.863 -410.507L344.898 -360.763V-261.276L258.863 -211.532Z" fill="#222222"/>
<path d="M87.0347 87.2144L1.00001 37.4707L1 -62.0168L87.0346 -111.76L173.069 -62.0168V37.4707L87.0347 87.2144Z" fill="#222222"/>
<path d="M258.863 87.2144L172.829 37.4707V-62.0168L258.863 -111.76L344.898 -62.0168V37.4707L258.863 87.2144Z" fill="#222222"/>
<path d="M87.0347 385.961L1.00001 336.217L1 236.73L87.0346 186.986L173.069 236.73V336.217L87.0347 385.961Z" fill="#222222"/>
<path d="M258.863 385.961L172.829 336.217V236.73L258.863 186.986L344.898 236.73V336.217L258.863 385.961Z" fill="#222222"/>
<path d="M87.0347 684.707L1.00001 634.964L1 535.476L87.0346 485.733L173.069 535.476V634.964L87.0347 684.707Z" fill="#222222"/>
<path d="M258.863 684.707L172.829 634.964V535.476L258.863 485.733L344.898 535.476V634.964L258.863 684.707Z" fill="#222222"/>
<path d="M87.0347 983.454L1.00001 933.71L1 834.223L87.0346 784.479L173.069 834.223V933.71L87.0347 983.454Z" fill="#222222"/>
<path d="M258.863 983.454L172.829 933.71V834.223L258.863 784.479L344.898 834.223V933.71L258.863 983.454Z" fill="#222222"/>
<path d="M87.0347 1282.2L1.00001 1232.46L1 1132.97L87.0346 1083.23L173.069 1132.97V1232.46L87.0347 1282.2Z" fill="#222222"/>
<path d="M258.863 1282.2L172.829 1232.46V1132.97L258.863 1083.23L344.898 1132.97V1232.46L258.863 1282.2Z" fill="#222222"/>
<path d="M172.564 -659.226L86.5298 -708.969L86.5297 -808.457L172.564 -858.2L258.599 -808.457V-708.969L172.564 -659.226Z" fill="#222222"/>
<path d="M172.564 -360.479L86.5298 -410.223L86.5297 -509.71L172.564 -559.454L258.599 -509.71V-410.223L172.564 -360.479Z" fill="#222222"/>
<path d="M172.564 -61.7325L86.5298 -111.476L86.5297 -210.964L172.564 -260.707L258.599 -210.964V-111.476L172.564 -61.7325Z" fill="#222222"/>
<path d="M172.564 237.014L86.5298 187.27L86.5297 87.7828L172.564 38.0392L258.599 87.7828V187.27L172.564 237.014Z" fill="#222222"/>
<path d="M172.564 535.76L86.5298 486.017L86.5297 386.529L172.564 336.786L258.599 386.529V486.017L172.564 535.76Z" fill="#222222"/>
<path d="M172.564 834.507L86.5298 784.763L86.5297 685.276L172.564 635.532L258.599 685.276V784.763L172.564 834.507Z" fill="#222222"/>
<path d="M172.564 1133.25L86.5298 1083.51L86.5297 984.022L172.564 934.279L258.599 984.022V1083.51L172.564 1133.25Z" fill="#222222"/>
<path d="M172.564 1432L86.5298 1382.26L86.5297 1282.77L172.564 1233.03L258.599 1282.77V1382.26L172.564 1432Z" fill="#222222"/>
<path d="M87.1365 -908.513L1.10186 -958.256L87.1365 -1008M87.1365 -908.513L173.171 -958.256M87.1365 -908.513L87.1365 -809.025M172.967 -958.256L86.9328 -1008M258.965 -908.513L172.931 -958.256L258.965 -1008M258.965 -908.513L345 -958.256M258.965 -908.513L258.965 -809.025M344.796 -958.256L258.762 -1008M344.658 -858.769V-958.256M87.1365 -609.766L1.10186 -659.51L87.1365 -709.253M87.1365 -609.766L173.171 -659.51M87.1365 -609.766L87.1365 -510.279M172.967 -659.51L86.9328 -709.253M258.965 -609.766L172.931 -659.51L258.965 -709.253M258.965 -609.766L345 -659.51M258.965 -609.766L258.965 -510.279M344.796 -659.51L258.762 -709.253M344.658 -560.022V-659.51M87.1365 -311.02L1.10186 -360.763L87.1365 -410.507M87.1365 -311.02L173.171 -360.763M87.1365 -311.02L87.1365 -211.532M172.967 -360.763L86.9328 -410.507M258.965 -311.02L172.931 -360.763L258.965 -410.507M258.965 -311.02L345 -360.763M258.965 -311.02L258.965 -211.532M344.796 -360.763L258.762 -410.507M344.658 -261.276V-360.763M87.1365 -12.2731L1.10186 -62.0168L87.1365 -111.76M87.1365 -12.2731L173.171 -62.0168M87.1365 -12.2731L87.1365 87.2144M172.967 -62.0168L86.9328 -111.76M258.965 -12.2731L172.931 -62.0168L258.965 -111.76M258.965 -12.2731L345 -62.0168M258.965 -12.2731L258.965 87.2144M344.796 -62.0168L258.762 -111.76M344.658 37.4707V-62.0168M87.1365 286.473L1.10186 236.73L87.1365 186.986M87.1365 286.473L173.171 236.73M87.1365 286.473L87.1365 385.961M172.967 236.73L86.9328 186.986M258.965 286.473L172.931 236.73L258.965 186.986M258.965 286.473L345 236.73M258.965 286.473L258.965 385.961M344.796 236.73L258.762 186.986M344.658 336.217V236.73M87.1365 585.22L1.10186 535.476L87.1365 485.733M87.1365 585.22L173.171 535.476M87.1365 585.22L87.1365 684.707M172.967 535.476L86.9328 485.733M258.965 585.22L172.931 535.476L258.965 485.733M258.965 585.22L345 535.476M258.965 585.22L258.965 684.707M344.796 535.476L258.762 485.733M344.658 634.964V535.476M87.1365 883.966L1.10186 834.223L87.1365 784.479M87.1365 883.966L173.171 834.223M87.1365 883.966L87.1365 983.454M172.967 834.223L86.9328 784.479M258.965 883.966L172.931 834.223L258.965 784.479M258.965 883.966L345 834.223M258.965 883.966L258.965 983.454M344.796 834.223L258.762 784.479M344.658 933.71V834.223M87.1365 1182.71L1.10186 1132.97L87.1365 1083.23M87.1365 1182.71L173.171 1132.97M87.1365 1182.71L87.1365 1282.2M172.967 1132.97L86.9328 1083.23M258.965 1182.71L172.931 1132.97L258.965 1083.23M258.965 1182.71L345 1132.97M258.965 1182.71L258.965 1282.2M344.796 1132.97L258.762 1083.23M344.658 1232.46V1132.97M172.666 -758.713L86.6316 -808.457L172.666 -858.2M172.666 -758.713L258.701 -808.457M172.666 -758.713L172.666 -659.226M258.497 -808.457L172.463 -858.2M258.46 -808.457L344.495 -858.2M344.393 -659.226L258.359 -708.969V-808.457L344.393 -858.2M172.666 -459.966L86.6316 -509.71L172.666 -559.454M172.666 -459.966L258.701 -509.71M172.666 -459.966L172.666 -360.479M258.497 -509.71L172.463 -559.454M258.46 -509.71L344.495 -559.454M344.393 -360.479L258.359 -410.223V-509.71L344.393 -559.454M172.666 -161.22L86.6316 -210.964L172.666 -260.707M172.666 -161.22L258.701 -210.964M172.666 -161.22L172.666 -61.7325M258.497 -210.964L172.463 -260.707M258.46 -210.964L344.495 -260.707M344.393 -61.7325L258.359 -111.476V-210.964L344.393 -260.707M172.666 137.526L86.6316 87.7828L172.666 38.0392M172.666 137.526L258.701 87.7828M172.666 137.526L172.666 237.014M258.497 87.7828L172.463 38.0392M258.46 87.7828L344.495 38.0392M344.393 237.014L258.359 187.27V87.7828L344.393 38.0392M172.666 436.273L86.6316 386.529L172.666 336.786M172.666 436.273L258.701 386.529M172.666 436.273L172.666 535.76M258.497 386.529L172.463 336.786M258.46 386.529L344.495 336.786M344.393 535.76L258.359 486.017V386.529L344.393 336.786M172.666 735.02L86.6316 685.276L172.666 635.532M172.666 735.02L258.701 685.276M172.666 735.02L172.666 834.507M258.497 685.276L172.463 635.532M258.46 685.276L344.495 635.532M344.393 834.507L258.359 784.763V685.276L344.393 635.532M172.666 1033.77L86.6316 984.022L172.666 934.279M172.666 1033.77L258.701 984.022M172.666 1033.77L172.666 1133.25M258.497 984.022L172.463 934.279M258.46 984.022L344.495 934.279M344.393 1133.25L258.359 1083.51V984.022L344.393 934.279M172.666 1332.51L86.6316 1282.77L172.666 1233.03M172.666 1332.51L258.701 1282.77M172.666 1332.51L172.666 1432M258.497 1282.77L172.463 1233.03M258.46 1282.77L344.495 1233.03M258.359 1382.26V1282.77L344.393 1233.03M87.0347 -809.025L1.00001 -858.769L1 -958.256L87.0346 -1008L173.069 -958.256V-858.769L87.0347 -809.025ZM258.863 -809.025L172.829 -858.769V-958.256L258.863 -1008L344.898 -958.256V-858.769L258.863 -809.025ZM87.0347 -510.279L1.00001 -560.022L1 -659.51L87.0346 -709.253L173.069 -659.51V-560.022L87.0347 -510.279ZM258.863 -510.279L172.829 -560.022V-659.51L258.863 -709.253L344.898 -659.51V-560.022L258.863 -510.279ZM87.0347 -211.532L1.00001 -261.276L1 -360.763L87.0346 -410.507L173.069 -360.763V-261.276L87.0347 -211.532ZM258.863 -211.532L172.829 -261.276V-360.763L258.863 -410.507L344.898 -360.763V-261.276L258.863 -211.532ZM87.0347 87.2144L1.00001 37.4707L1 -62.0168L87.0346 -111.76L173.069 -62.0168V37.4707L87.0347 87.2144ZM258.863 87.2144L172.829 37.4707V-62.0168L258.863 -111.76L344.898 -62.0168V37.4707L258.863 87.2144ZM87.0347 385.961L1.00001 336.217L1 236.73L87.0346 186.986L173.069 236.73V336.217L87.0347 385.961ZM258.863 385.961L172.829 336.217V236.73L258.863 186.986L344.898 236.73V336.217L258.863 385.961ZM87.0347 684.707L1.00001 634.964L1 535.476L87.0346 485.733L173.069 535.476V634.964L87.0347 684.707ZM258.863 684.707L172.829 634.964V535.476L258.863 485.733L344.898 535.476V634.964L258.863 684.707ZM87.0347 983.454L1.00001 933.71L1 834.223L87.0346 784.479L173.069 834.223V933.71L87.0347 983.454ZM258.863 983.454L172.829 933.71V834.223L258.863 784.479L344.898 834.223V933.71L258.863 983.454ZM87.0347 1282.2L1.00001 1232.46L1 1132.97L87.0346 1083.23L173.069 1132.97V1232.46L87.0347 1282.2ZM258.863 1282.2L172.829 1232.46V1132.97L258.863 1083.23L344.898 1132.97V1232.46L258.863 1282.2ZM172.564 -659.226L86.5298 -708.969L86.5297 -808.457L172.564 -858.2L258.599 -808.457V-708.969L172.564 -659.226ZM172.564 -360.479L86.5298 -410.223L86.5297 -509.71L172.564 -559.454L258.599 -509.71V-410.223L172.564 -360.479ZM172.564 -61.7325L86.5298 -111.476L86.5297 -210.964L172.564 -260.707L258.599 -210.964V-111.476L172.564 -61.7325ZM172.564 237.014L86.5298 187.27L86.5297 87.7828L172.564 38.0392L258.599 87.7828V187.27L172.564 237.014ZM172.564 535.76L86.5298 486.017L86.5297 386.529L172.564 336.786L258.599 386.529V486.017L172.564 535.76ZM172.564 834.507L86.5298 784.763L86.5297 685.276L172.564 635.532L258.599 685.276V784.763L172.564 834.507ZM172.564 1133.25L86.5298 1083.51L86.5297 984.022L172.564 934.279L258.599 984.022V1083.51L172.564 1133.25ZM172.564 1432L86.5298 1382.26L86.5297 1282.77L172.564 1233.03L258.599 1282.77V1382.26L172.564 1432Z" stroke="#BC9B77" stroke-linejoin="round"/>
</svg>

<svg width="346" height="480" fill="none" xmlns="http://www.w3.org/2000/svg"><path d="M87.035-809.025L1-858.769v-99.487L87.035-1008l86.034 49.744v99.487l-86.034 49.744z" fill="#222"/><path d="M258.863-809.025l-86.034-49.744v-99.487L258.863-1008l86.035 49.744v99.487l-86.035 49.744zM87.035-510.279L1-560.022v-99.488l86.035-49.743 86.034 49.743v99.488l-86.034 49.743z" fill="#222"/><path d="M258.863-510.279l-86.034-49.743v-99.488l86.034-49.743 86.035 49.743v99.488l-86.035 49.743zM87.035-211.532L1-261.276v-99.487l86.035-49.744 86.034 49.744v99.487l-86.034 49.744z" fill="#222"/><path d="M258.863-211.532l-86.034-49.744v-99.487l86.034-49.744 86.035 49.744v99.487l-86.035 49.744zM87.035 87.214L1 37.471v-99.488l86.035-49.743 86.034 49.743v99.488L87.035 87.214z" fill="#222"/><path d="M258.863 87.214l-86.034-49.743v-99.488l86.034-49.743 86.035 49.743v99.488l-86.035 49.743zM87.035 385.961L1 336.217V236.73l86.035-49.744 86.034 49.744v99.487l-86.034 49.744z" fill="#222"/><path d="M258.863 385.961l-86.034-49.744V236.73l86.034-49.744 86.035 49.744v99.487l-86.035 49.744zM87.035 684.707L1 634.964v-99.488l86.035-49.743 86.034 49.743v99.488l-86.034 49.743z" fill="#222"/><path d="M258.863 684.707l-86.034-49.743v-99.488l86.034-49.743 86.035 49.743v99.488l-86.035 49.743zM87.035 983.454L1 933.71v-99.487l86.035-49.744 86.034 49.744v99.487l-86.034 49.744z" fill="#222"/><path d="M258.863 983.454l-86.034-49.744v-99.487l86.034-49.744 86.035 49.744v99.487l-86.035 49.744zM87.035 1282.2L1 1232.46v-99.49l86.035-49.74 86.034 49.74v99.49l-86.034 49.74z" fill="#222"/><path d="M258.863 1282.2l-86.034-49.74v-99.49l86.034-49.74 86.035 49.74v99.49l-86.035 49.74zM172.564-659.226L86.53-708.969v-99.488l86.034-49.743 86.035 49.743v99.488l-86.035 49.743zm0 298.747L86.53-410.223v-99.487l86.034-49.744 86.035 49.744v99.487l-86.035 49.744zm0 298.746L86.53-111.476v-99.488l86.034-49.743 86.035 49.743v99.488l-86.035 49.743zm0 298.747L86.53 187.27V87.783l86.034-49.744 86.035 49.744v99.487l-86.035 49.744zm0 298.746L86.53 486.017v-99.488l86.034-49.743 86.035 49.743v99.488l-86.035 49.743zm0 298.747L86.53 784.763v-99.487l86.034-49.744 86.035 49.744v99.487l-86.035 49.744z" fill="#222"/><path d="M172.564 1133.25l-86.034-49.74v-99.488l86.034-49.743 86.035 49.743v99.488l-86.035 49.74zm0 298.75l-86.034-49.74v-99.49l86.034-49.74 86.035 49.74v99.49L172.564 1432z" fill="#222"/><path d="M87.136-908.513L1.102-958.256 87.136-1008m0 99.487l86.035-49.743m-86.034 49.743v99.488m85.83-149.231L86.933-1008m172.032 99.487l-86.034-49.743L258.965-1008m0 99.487L345-958.256m-86.035 49.743v99.488m85.831-149.231L258.762-1008m85.896 149.231v-99.487M87.136-609.766L1.103-659.51l86.034-49.743m0 99.487l86.035-49.744m-86.034 49.744v99.487m85.83-149.231l-86.034-49.743m172.032 99.487l-86.034-49.744 86.034-49.743m0 99.487L345-659.51m-86.035 49.744v99.487m85.831-149.231l-86.034-49.743m85.896 149.231v-99.488M87.136-311.02L1.103-360.763l86.034-49.744m0 99.487l86.035-49.743M87.137-311.02v99.488m85.83-149.231l-86.034-49.744m172.032 99.487l-86.034-49.743 86.034-49.744m0 99.487L345-360.763m-86.035 49.743v99.488m85.831-149.231l-86.034-49.744m85.896 149.231v-99.487M87.136-12.273L1.103-62.017l86.034-49.743m0 99.487l86.035-49.744M87.137-12.273v99.487m85.83-149.23L86.933-111.76m172.032 99.487l-86.034-49.744 86.034-49.743m0 99.487L345-62.017m-86.035 49.744v99.487m85.831-149.23l-86.034-49.744m85.896 149.23v-99.487M87.136 286.473L1.103 236.73l86.034-49.744m0 99.487l86.035-49.743m-86.034 49.743v99.488m85.83-149.231l-86.034-49.744m172.032 99.487l-86.034-49.743 86.034-49.744m0 99.487L345 236.73m-86.035 49.743v99.488m85.831-149.231l-86.034-49.744m85.896 149.231V236.73M87.136 585.22L1.103 535.476l86.034-49.743m0 99.487l86.035-49.744M87.137 585.22v99.487m85.83-149.231l-86.034-49.743m172.032 99.487l-86.034-49.744 86.034-49.743m0 99.487L345 535.476m-86.035 49.744v99.487m85.831-149.231l-86.034-49.743m85.896 149.231v-99.488M87.136 883.966L1.103 834.223l86.034-49.744m0 99.487l86.035-49.743m-86.034 49.743v99.488m85.83-149.231l-86.034-49.744m172.032 99.487l-86.034-49.743 86.034-49.744m0 99.487L345 834.223m-86.035 49.743v99.488m85.831-149.231l-86.034-49.744m85.896 149.231v-99.487M87.136 1182.71l-86.034-49.74 86.034-49.74m0 99.48l86.035-49.74m-86.034 49.74v99.49m85.83-149.23l-86.034-49.74m172.032 99.48l-86.034-49.74 86.034-49.74m0 99.48L345 1132.97m-86.035 49.74v99.49m85.831-149.23l-86.034-49.74m85.896 149.23v-99.49M172.666-758.713l-86.034-49.744 86.034-49.743m0 99.487l86.035-49.744m-86.035 49.744v99.487m85.831-149.231L172.463-858.2m85.997 49.743l86.035-49.743m-.102 198.974l-86.034-49.743v-99.488l86.034-49.743M172.666-459.966L86.632-509.71l86.034-49.744m0 99.488l86.035-49.744m-86.035 49.744v99.487m85.831-149.231l-86.034-49.744m85.997 49.744l86.035-49.744m-.102 198.975l-86.034-49.744v-99.487l86.034-49.744M172.666-161.22l-86.034-49.744 86.034-49.743m0 99.487l86.035-49.744m-86.035 49.744v99.487m85.831-149.231l-86.034-49.743m85.997 49.743l86.035-49.743m-.102 198.974l-86.034-49.743v-99.488l86.034-49.743M172.666 137.526L86.632 87.783l86.034-49.744m0 99.487l86.035-49.743m-86.035 49.743v99.488m85.831-149.231l-86.034-49.744m85.997 49.744l86.035-49.744m-.102 198.975l-86.034-49.744V87.783l86.034-49.744M172.666 436.273l-86.034-49.744 86.034-49.743m0 99.487l86.035-49.744m-86.035 49.744v99.487m85.831-149.231l-86.034-49.743m85.997 49.743l86.035-49.743m-.102 198.974l-86.034-49.743v-99.488l86.034-49.743M172.666 735.02l-86.034-49.744 86.034-49.744m0 99.488l86.035-49.744m-86.035 49.744v99.487m85.831-149.231l-86.034-49.744m85.997 49.744l86.035-49.744m-.102 198.975l-86.034-49.744v-99.487l86.034-49.744M172.666 1033.77l-86.034-49.748 86.034-49.743m0 99.491l86.035-49.748m-86.035 49.748v99.48m85.831-149.228l-86.034-49.743m85.997 49.743l86.035-49.743m-.102 198.971l-86.034-49.74v-99.488l86.034-49.743M172.666 1332.51l-86.034-49.74 86.034-49.74m0 99.48l86.035-49.74m-86.035 49.74V1432m85.831-149.23l-86.034-49.74m85.997 49.74l86.035-49.74m-86.136 149.23v-99.49l86.034-49.74M87.035-809.025L1-858.769v-99.487L87.035-1008l86.034 49.744v99.487l-86.034 49.744zm171.828 0l-86.034-49.744v-99.487L258.863-1008l86.035 49.744v99.487l-86.035 49.744zM87.035-510.279L1-560.022v-99.488l86.035-49.743 86.034 49.743v99.488l-86.034 49.743zm171.828 0l-86.034-49.743v-99.488l86.034-49.743 86.035 49.743v99.488l-86.035 49.743zM87.035-211.532L1-261.276v-99.487l86.035-49.744 86.034 49.744v99.487l-86.034 49.744zm171.828 0l-86.034-49.744v-99.487l86.034-49.744 86.035 49.744v99.487l-86.035 49.744zM87.035 87.214L1 37.471v-99.488l86.035-49.743 86.034 49.743v99.488L87.035 87.214zm171.828 0l-86.034-49.743v-99.488l86.034-49.743 86.035 49.743v99.488l-86.035 49.743zM87.035 385.961L1 336.217V236.73l86.035-49.744 86.034 49.744v99.487l-86.034 49.744zm171.828 0l-86.034-49.744V236.73l86.034-49.744 86.035 49.744v99.487l-86.035 49.744zM87.035 684.707L1 634.964v-99.488l86.035-49.743 86.034 49.743v99.488l-86.034 49.743zm171.828 0l-86.034-49.743v-99.488l86.034-49.743 86.035 49.743v99.488l-86.035 49.743zM87.035 983.454L1 933.71v-99.487l86.035-49.744 86.034 49.744v99.487l-86.034 49.744zm171.828 0l-86.034-49.744v-99.487l86.034-49.744 86.035 49.744v99.487l-86.035 49.744zM87.035 1282.2L1 1232.46v-99.49l86.035-49.74 86.034 49.74v99.49l-86.034 49.74zm171.828 0l-86.034-49.74v-99.49l86.034-49.74 86.035 49.74v99.49l-86.035 49.74zM172.564-659.226L86.53-708.969v-99.488l86.034-49.743 86.035 49.743v99.488l-86.035 49.743zm0 298.747L86.53-410.223v-99.487l86.034-49.744 86.035 49.744v99.487l-86.035 49.744zm0 298.746L86.53-111.476v-99.488l86.034-49.743 86.035 49.743v99.488l-86.035 49.743zm0 298.747L86.53 187.27V87.783l86.034-49.744 86.035 49.744v99.487l-86.035 49.744zm0 298.746L86.53 486.017v-99.488l86.034-49.743 86.035 49.743v99.488l-86.035 49.743zm0 298.747L86.53 784.763v-99.487l86.034-49.744 86.035 49.744v99.487l-86.035 49.744zm0 298.743l-86.034-49.74v-99.488l86.034-49.743 86.035 49.743v99.488l-86.035 49.74zm0 298.75l-86.034-49.74v-99.49l86.034-49.74 86.035 49.74v99.49L172.564 1432z" stroke="#BC9B77" stroke-linejoin="round"/></svg>
